img/arcjet-logo.svg

<svg fill="none" height="460" viewBox="0 0 1040 460" width="1040" xmlns="http://www.w3.org/2000/svg"><g fill="#fff"><path d="m730.356 287.811c-23.741 0-40.79-17.686-40.79-42.064 0-24.219 17.049-41.745 40.152-41.745 23.104 0 40.312 17.526 40.312 41.745 0 1.274-.16 3.186-.319 4.78h-61.821c1.752 13.065 10.994 22.147 23.103 22.147 8.604 0 16.571-4.621 20.554-11.472l14.34 9.241c-7.17 10.357-21.032 17.368-35.531 17.368zm-21.67-50.827h42.224c-2.868-10.676-10.994-17.846-21.192-17.846-10.197 0-18.164 7.17-21.032 17.846z"/><path d="m654.299 287.542v-81.451h18.477v85.818c0 11.254-2.183 19.485-6.719 24.356-5.207 5.879-12.43 8.735-21.668 8.735l-5.04-16.629c5.544 0 9.407-1.512 11.591-4.536 2.183-3.191 3.359-8.566 3.359-16.293z"/><path d="m675.11 175.675c0 6.411-5.197 11.608-11.609 11.608-6.411 0-11.608-5.197-11.608-11.608 0-6.412 5.197-11.609 11.608-11.609 6.412 0 11.609 5.197 11.609 11.609z"/><path d="m792.212 175.67h18.482v30.403h16.093v15.137h-16.093v64.529h-18.482v-64.529h-13.013v-15.137h13.013z"/><path clip-rule="evenodd" d="m398.096 285.739 14.944-30.251h56.808l14.761 30.251h19.276l-62.443-127.739-62.442 127.739zm22.686-46.072 20.66-42.1 20.661 42.1z" fill-rule="evenodd"/><path d="m636.593 233.276c-5.783-7.374-12.766-13.353-25.807-13.353-13.544 0-23.422 10.846-23.422 25.983 0 14.977 9.878 25.971 23.422 25.971 13.041 0 20.024-6.117 25.807-13.475v20.959c-6.947 5.322-15.795 8.45-25.807 8.45-24.06 0-41.427-17.686-41.427-41.905 0-24.378 17.367-41.904 41.427-41.904 9.978 0 18.872 3.034 25.807 8.324z"/><path d="m533.051 285.739h-18.436v-79.627h18.436v7.629c3.552-3.979 6.508-6.305 8.909-7.437 2.842-1.339 5.983-2.203 9.67-2.203 3.688 0 9.914 1.508 15.11 4.693l-8.38 16.76c-3.52-2.514-6.872-3.687-10.224-3.687-10.056 0-15.085 7.542-15.085 22.626z"/><path d="m284.06 229.715c11.824 3.022 21.598 5.444 41.94 9.955-20.342 4.511-30.116 6.933-41.94 9.955-3.979 1.016-7.089 4.126-8.106 8.105-3.021 11.821-5.443 21.599-9.954 41.94-4.511-20.341-6.933-30.119-9.954-41.94-1.017-3.979-4.127-7.089-8.106-8.105-11.824-3.022-21.598-5.444-41.94-9.955 20.342-4.511 30.116-6.933 41.94-9.955 3.979-1.016 7.089-4.126 8.106-8.105 3.021-11.821 5.443-21.599 9.954-41.94 4.511 20.341 6.933 30.119 9.954 41.94 1.017 3.979 4.127 7.089 8.106 8.105z"/><g clip-rule="evenodd" fill-rule="evenodd"><path d="m174.651 236.37 3.349 3.3-3.349 3.3c-30.835-2.232-59.886-2.548-106.6922-3.056-6.9115-.075-14.2101-.154-21.9588-.244 7.6321-.089 14.8275-.167 21.6464-.241 46.9896-.51 76.1006-.827 107.0046-3.059z"/><path d="m804.451 84.25c78.172 0 150.861 66.099 150.861 145.75 0 79.642-72.672 145.735-150.834 145.75h-.054c-.392 0-.784-.002-1.177-.005 79.921-.67 144.503-65.666 144.503-145.745s-64.582-145.0748-144.503-145.7448c.402-.0035.803-.0052 1.204-.0052z"/></g></g></svg>

<svg width="1040" height="460" viewBox="0 0 1040 460" fill="none" xmlns="http://www.w3.org/2000/svg">
<path d="M730.356 287.811C706.615 287.811 689.566 270.125 689.566 245.747C689.566 221.528 706.615 204.002 729.718 204.002C752.822 204.002 770.03 221.528 770.03 245.747C770.03 247.021 769.87 248.933 769.711 250.527H707.89C709.642 263.592 718.884 272.674 730.993 272.674C739.597 272.674 747.564 268.053 751.547 261.202L765.887 270.443C758.717 280.8 744.855 287.811 730.356 287.811ZM708.686 236.984H750.91C748.042 226.308 739.916 219.138 729.718 219.138C719.521 219.138 711.554 226.308 708.686 236.984Z" fill="white"/>
<path d="M654.299 287.542V206.091H672.776V291.909C672.776 303.163 670.593 311.394 666.057 316.265C660.85 322.144 653.627 325 644.389 325L639.349 308.371C644.893 308.371 648.756 306.859 650.94 303.835C653.123 300.644 654.299 295.269 654.299 287.542Z" fill="white"/>
<path d="M675.11 175.675C675.11 182.086 669.913 187.283 663.501 187.283C657.09 187.283 651.893 182.086 651.893 175.675C651.893 169.263 657.09 164.066 663.501 164.066C669.913 164.066 675.11 169.263 675.11 175.675Z" fill="white"/>
<path d="M792.212 175.67H810.694V206.073H826.787V221.21H810.694V285.739H792.212V221.21H779.199V206.073H792.212V175.67Z" fill="white"/>
<path fill-rule="evenodd" clip-rule="evenodd" d="M398.096 285.739L413.04 255.488H469.848L484.609 285.739H503.885L441.442 158L379 285.739H398.096ZM420.782 239.667L441.442 197.567L462.103 239.667H420.782Z" fill="white"/>
<path d="M636.593 233.276C630.81 225.902 623.827 219.923 610.786 219.923C597.242 219.923 587.364 230.769 587.364 245.906C587.364 260.883 597.242 271.877 610.786 271.877C623.827 271.877 630.81 265.76 636.593 258.402V279.361C629.646 284.683 620.798 287.811 610.786 287.811C586.726 287.811 569.359 270.125 569.359 245.906C569.359 221.528 586.726 204.002 610.786 204.002C620.764 204.002 629.658 207.036 636.593 212.326V233.276Z" fill="white"/>
<path d="M533.051 285.739H514.615V206.112H533.051V213.741C536.603 209.762 539.559 207.436 541.96 206.304C544.802 204.965 547.943 204.101 551.63 204.101C555.318 204.101 561.544 205.609 566.74 208.794L558.36 225.554C554.84 223.04 551.488 221.867 548.136 221.867C538.08 221.867 533.051 229.409 533.051 244.493V285.739Z" fill="white"/>
<path d="M284.06 229.715C295.884 232.737 305.658 235.159 326 239.67C305.658 244.181 295.884 246.603 284.06 249.625C280.081 250.641 276.971 253.751 275.954 257.73C272.933 269.551 270.511 279.329 266 299.67C261.489 279.329 259.067 269.551 256.046 257.73C255.029 253.751 251.919 250.641 247.94 249.625C236.116 246.603 226.342 244.181 206 239.67C226.342 235.159 236.116 232.737 247.94 229.715C251.919 228.699 255.029 225.589 256.046 221.61C259.067 209.789 261.489 200.011 266 179.67C270.511 200.011 272.933 209.789 275.954 221.61C276.971 225.589 280.081 228.699 284.06 229.715Z" fill="white"/>
<path fill-rule="evenodd" clip-rule="evenodd" d="M174.651 236.37L178 239.67L174.651 242.97C143.816 240.738 114.765 240.422 67.9588 239.914C61.0473 239.839 53.7487 239.76 46 239.67C53.6321 239.581 60.8275 239.503 67.6464 239.429C114.636 238.919 143.747 238.602 174.651 236.37Z" fill="white"/>
<path fill-rule="evenodd" clip-rule="evenodd" d="M804.451 84.25C882.623 84.25 955.312 150.349 955.312 230C955.312 309.642 882.64 375.735 804.478 375.75H804.424C804.032 375.75 803.64 375.748 803.247 375.745C883.168 375.075 947.75 310.079 947.75 230C947.75 149.921 883.168 84.9252 803.247 84.2552C803.649 84.2517 804.05 84.25 804.451 84.25Z" fill="white"/>
</svg>
